X:84
T:Engelska fr\aa{}n Bohuslän
N:used by Ian Dedic & Smiffs
S:efter J.A. Nilsson, Munkedal
R:polka 32 schottische
Q:1/4=90
O:Sweden
M:2/4
L:1/16
B:Svenska L\aa{}tar Bohuslän nr.57
A:Bohuslän
K:D
[A,2D2]FA (Ad)ef|(gf)ed (dc)BA|G2[G2B2] F2[F2A2]|[A,2E2]A2 GFE2|
[A,2D2]FA (Ad)ef|(gf)ge (dc)BA|(gf)ge (dc)Bc|d2[d2f2] [d2f2] z2:|
|:(Ad)fd (Ac)ec|(Ad)fd (Ac)ec|(AG)BG F2AA|(AG)BG F2AA|
(Ad)fd (Ac)ec|(Ad)fd (Ac)ec|(AB)cd (eg)ec|e2[d2f2] [d2f2] z2:|

